img/logo_mi.svg

<svg width="76" height="76" viewBox="0 0 76 76" fill="none" xmlns="http://www.w3.org/2000/svg">
<path d="M63.7827 11.9565C57.6365 5.83399 48.7985 5.13834 38.0001 5.13834C27.2017 5.13834 18.336 5.83004 12.1898 11.9684C6.04353 18.1067 5.42297 26.9565 5.42297 37.7589C5.42297 48.5613 6.04748 57.3993 12.1937 63.5376C18.34 69.6759 27.1858 70.3005 38.0001 70.3005C48.8143 70.3005 57.6602 69.6799 63.8064 63.5376C69.9527 57.3953 70.5732 48.5574 70.5732 37.7589C70.5732 26.9605 69.9606 18.0949 63.7827 11.9565ZM35.6009 49.8024C35.6009 49.9072 35.5592 50.0078 35.4851 50.0819C35.411 50.156 35.3104 50.1977 35.2056 50.1977H29.6443C29.5395 50.1977 29.439 50.156 29.3649 50.0819C29.2907 50.0078 29.2491 49.9072 29.2491 49.8024V35.2688C29.2491 35.164 29.2907 35.0634 29.3649 34.9893C29.439 34.9152 29.5395 34.8735 29.6443 34.8735H35.1779C35.2828 34.8735 35.3833 34.9152 35.4574 34.9893C35.5316 35.0634 35.5732 35.164 35.5732 35.2688L35.6009 49.8024ZM46.4784 49.8024C46.4784 49.9072 46.4367 50.0078 46.3626 50.0819C46.2885 50.156 46.1879 50.1977 46.0831 50.1977H40.7827C40.7292 50.2004 40.6756 50.1921 40.6254 50.1735C40.5751 50.1548 40.5292 50.1261 40.4903 50.0891C40.4515 50.0522 40.4206 50.0077 40.3995 49.9584C40.3785 49.9091 40.3676 49.856 40.3677 49.8024V37.2609C40.3677 35.0751 40.2372 32.8261 39.1108 31.6957C38.1384 30.7194 36.344 30.5099 34.4428 30.4506H24.8538C24.749 30.4506 24.6485 30.4923 24.5743 30.5664C24.5002 30.6405 24.4586 30.741 24.4586 30.8459V49.8024C24.4586 49.856 24.4478 49.9091 24.4267 49.9584C24.4056 50.0077 24.3747 50.0522 24.3359 50.0891C24.2971 50.1261 24.2511 50.1548 24.2009 50.1735C24.1506 50.1921 24.0971 50.2004 24.0435 50.1977H18.7431C18.6383 50.1977 18.5378 50.156 18.4637 50.0819C18.3895 50.0078 18.3479 49.9072 18.3479 49.8024V25.6561C18.3479 25.5513 18.3895 25.4508 18.4637 25.3767C18.5378 25.3025 18.6383 25.2609 18.7431 25.2609H33.9922C37.9843 25.2609 42.1542 25.4427 44.2135 27.502C46.2728 29.5613 46.4625 33.7352 46.4625 37.7313L46.4784 49.8024ZM57.3756 49.8024C57.3756 49.9072 57.334 50.0078 57.2598 50.0819C57.1857 50.156 57.0852 50.1977 56.9803 50.1977H51.672C51.5672 50.1977 51.4667 50.156 51.3925 50.0819C51.3184 50.0078 51.2768 49.9072 51.2768 49.8024V25.6561C51.2768 25.5513 51.3184 25.4508 51.3925 25.3767C51.4667 25.3025 51.5672 25.2609 51.672 25.2609H56.9645C57.0694 25.2609 57.1699 25.3025 57.244 25.3767C57.3181 25.4508 57.3598 25.5513 57.3598 25.6561L57.3756 49.8024Z" fill="#FF6900"/>
<path d="M35.1779 34.8695H29.6443C29.5395 34.8695 29.4389 34.9112 29.3648 34.9853C29.2907 35.0594 29.249 35.16 29.249 35.2648V49.8023C29.249 49.9072 29.2907 50.0077 29.3648 50.0818C29.4389 50.156 29.5395 50.1976 29.6443 50.1976H35.1779C35.2827 50.1976 35.3832 50.156 35.4574 50.0818C35.5315 50.0077 35.5731 49.9072 35.5731 49.8023V35.2687C35.5737 35.2165 35.5638 35.1647 35.5442 35.1163C35.5246 35.0679 35.4955 35.0238 35.4588 34.9867C35.422 34.9496 35.3783 34.9201 35.3301 34.9C35.2818 34.8799 35.2301 34.8695 35.1779 34.8695Z" fill="white"/>
<path d="M51.672 50.1976H56.9645C57.0693 50.1976 57.1698 50.156 57.244 50.0819C57.3181 50.0077 57.3597 49.9072 57.3597 49.8024V25.6561C57.3597 25.5513 57.3181 25.4508 57.244 25.3766C57.1698 25.3025 57.0693 25.2609 56.9645 25.2609H51.672C51.5672 25.2609 51.4666 25.3025 51.3925 25.3766C51.3184 25.4508 51.2767 25.5513 51.2767 25.6561V49.8024C51.2767 49.9072 51.3184 50.0077 51.3925 50.0819C51.4666 50.156 51.5672 50.1976 51.672 50.1976Z" fill="white"/>
<path d="M18.743 50.1976H24.0316C24.0851 50.2003 24.1387 50.1921 24.1889 50.1734C24.2392 50.1547 24.2851 50.1261 24.3239 50.0891C24.3628 50.0521 24.3937 50.0076 24.4147 49.9583C24.4358 49.909 24.4467 49.856 24.4466 49.8024V30.8498C24.4466 30.745 24.4882 30.6444 24.5624 30.5703C24.6365 30.4962 24.737 30.4545 24.8419 30.4545H34.4427C36.3241 30.502 38.1383 30.7233 39.1107 31.6996C40.2371 32.83 40.3636 35.079 40.3676 37.2648V49.8024C40.3675 49.856 40.3783 49.909 40.3994 49.9583C40.4205 50.0076 40.4514 50.0521 40.4902 50.0891C40.5291 50.1261 40.575 50.1547 40.6253 50.1734C40.6755 50.1921 40.729 50.2003 40.7826 50.1976H46.0711C46.176 50.1976 46.2765 50.156 46.3506 50.0819C46.4248 50.0077 46.4664 49.9072 46.4664 49.8024V37.7233C46.4664 33.7273 46.2846 29.5652 44.2174 27.4941C42.1502 25.4229 38 25.253 33.9921 25.253H18.743C18.6382 25.253 18.5377 25.2946 18.4635 25.3687C18.3894 25.4429 18.3478 25.5434 18.3478 25.6482V49.8024C18.3478 49.9072 18.3894 50.0077 18.4635 50.0819C18.5377 50.156 18.6382 50.1976 18.743 50.1976Z" fill="white"/>
</svg>

<svg width="76" height="76" fill="none" xmlns="http://www.w3.org/2000/svg"><path d="M63.783 11.957C57.636 5.833 48.798 5.138 38 5.138c-10.798 0-19.664.692-25.81 6.83-6.146 6.139-6.767 14.988-6.767 25.79 0 10.803.624 19.641 6.77 25.78C18.34 69.676 27.187 70.3 38 70.3c10.814 0 19.66-.621 25.806-6.763 6.147-6.143 6.767-14.98 6.767-25.78 0-10.798-.612-19.663-6.79-25.802ZM35.6 49.801a.395.395 0 0 1-.395.396h-5.562a.395.395 0 0 1-.395-.396V35.27a.395.395 0 0 1 .395-.395h5.534a.395.395 0 0 1 .395.395l.028 14.533Zm10.877 0a.395.395 0 0 1-.395.396h-5.3a.396.396 0 0 1-.415-.396V37.261c0-2.186-.13-4.435-1.257-5.565-.973-.977-2.767-1.186-4.668-1.245h-9.59a.396.396 0 0 0-.394.395v18.956a.397.397 0 0 1-.415.396h-5.3a.395.395 0 0 1-.396-.396V25.656a.395.395 0 0 1 .395-.395h15.25c3.991 0 8.161.182 10.22 2.241 2.06 2.06 2.25 6.233 2.25 10.23l.015 12.07Zm10.898 0a.395.395 0 0 1-.396.396h-5.308a.396.396 0 0 1-.395-.396V25.656a.395.395 0 0 1 .395-.395h5.293a.395.395 0 0 1 .395.395l.016 24.146Z" fill="#FF6900"/><path d="M35.178 34.87h-5.534a.395.395 0 0 0-.395.395v14.537a.395.395 0 0 0 .395.396h5.534a.395.395 0 0 0 .395-.396V35.27a.394.394 0 0 0-.395-.4ZM51.672 50.198h5.293a.396.396 0 0 0 .395-.396V25.656a.396.396 0 0 0-.395-.395h-5.293a.395.395 0 0 0-.395.395v24.146a.396.396 0 0 0 .395.396Z" fill="#fff"/><path d="M18.743 50.198h5.289a.394.394 0 0 0 .415-.396V30.85a.395.395 0 0 1 .395-.396h9.6c1.882.048 3.696.27 4.669 1.246 1.126 1.13 1.253 3.379 1.257 5.565v12.537a.394.394 0 0 0 .415.396h5.288a.395.395 0 0 0 .395-.396V37.723c0-3.996-.181-8.158-2.249-10.229-2.067-2.071-6.217-2.241-10.225-2.241H18.743a.396.396 0 0 0-.395.395v24.154a.396.396 0 0 0 .395.396Z" fill="#fff"/></svg>
